icons/svg/battery-charging-100.svg

﻿<?xml version="1.0" encoding="utf-8"?>
<!DOCTYPE svg PUBLIC "-//W3C//DTD SVG 1.1//EN" "http://www.w3.org/Graphics/SVG/1.1/DTD/svg11.dtd">
<svg xmlns="http://www.w3.org/2000/svg" xmlns:xlink="http://www.w3.org/1999/xlink" version="1.1" baseProfile="full" width="24" height="24" viewBox="0 0 24.00 24.00" enable-background="new 0 0 24.00 24.00" xml:space="preserve">
	<path fill="#000000" fill-opacity="1" stroke-width="0.2" stroke-linejoin="round" d="M 22.9994,10.998L 19.9994,10.998L 19.9994,3.99805L 14.9994,13.998L 17.9994,13.998L 17.9994,21.998M 12.6664,3.99805L 10.9994,3.99805L 10.9994,1.99805L 4.99939,1.99805L 4.99939,3.99805L 3.3324,3.99805C 2.59637,3.99805 1.99939,4.59503 1.99939,5.33105L 1.99939,20.665C 1.99939,21.4011 2.59637,21.998 3.3324,21.998L 12.6664,21.998C 13.4024,21.998 13.9994,21.4011 13.9994,20.665L 13.9994,5.33105C 13.9994,4.59503 13.4024,3.99805 12.6664,3.99805 Z "/>
</svg>

<svg xmlns="http://www.w3.org/2000/svg" version="1.1" baseProfile="full" width="24" height="24" viewBox="0 0 24.00 24.00" xml:space="preserve"><path fill="#000" fill-opacity="1" stroke-width=".2" stroke-linejoin="round" d="M23 10.998h-3v-7l-5 10h3v8m-5.334-18H11v-2H5v2H3.33C2.596 3.998 2 4.595 2 5.33v15.335c0 .736.596 1.333 1.332 1.333h9.334c.736 0 1.333-.597 1.333-1.333V5.33C14 4.596 13.4 4 12.665 4z"/></svg>
